assets/icons/confetti.svg

<svg width="20" height="20" viewBox="0 0 20 20" fill="none" xmlns="http://www.w3.org/2000/svg">
<path d="M3.33285 4.16634H4.99951M4.16618 3.33301V4.99967M9.58285 3.33301L9.16618 4.99967M14.9995 4.16634H16.6662M15.8328 3.33301V4.99967M12.4995 7.49967L11.6662 8.33301M14.9995 10.833L16.6662 10.4163M14.9995 15.833H16.6662M15.8328 14.9997V16.6663M11.6662 13.7647L6.23451 8.33301L2.57618 16.3163C2.50387 16.4713 2.48101 16.6448 2.5107 16.8133C2.54038 16.9817 2.62118 17.137 2.74213 17.2579C2.86307 17.3788 3.0183 17.4596 3.18674 17.4893C3.35518 17.519 3.52868 17.4961 3.68368 17.4238L11.6662 13.7647Z" stroke="currentColor" stroke-linecap="round" stroke-linejoin="round"/>
</svg>

<svg xmlns="http://www.w3.org/2000/svg" width="20" height="20" fill="none" viewBox="0 0 20 20"><path stroke="currentColor" stroke-linecap="round" stroke-linejoin="round" d="M3.333 4.166H5m-.834-.833V5m5.417-1.667L9.166 5M15 4.166h1.667m-.833-.833V5M12.5 7.5l-.833.833m3.333 2.5 1.667-.417M15 15.833h1.667M15.833 15v1.666m-4.167-2.901L6.235 8.333l-3.659 7.983a.833.833 0 0 0 1.108 1.108z"/></svg>
